X: 2
T:My Love is But a Lassie Yet. HS.02
M:2/4
Q:50
C:"The National Quadrilles,No.1,Scotch"
S:Henry Stables MS,Cumbria,late19thC
R:reel
O:Walthwaite,nr.Ambleside.
A:England
Z:vmp.Chris Partington
K:D
"Primo,Lively"f2e2|dD FA|d>e f>e|"sic"dD FA|GE Ef/e/|!
dD FA|d>e f>e|dA Bc|dDD::!
f/-g/|af g>e|fd df/g/|a>f g>f|eA Af/0g/|!
a>f g>e|f>d e>c|dA Bc|dDD:||
